twotone/svg/image_aspect_ratio.svg

<?xml version="1.0" encoding="utf-8"?>
<!-- Generator: Adobe Illustrator 19.1.0, SVG Export Plug-In . SVG Version: 6.00 Build 0)  -->
<svg version="1.1" xmlns="http://www.w3.org/2000/svg" xmlns:xlink="http://www.w3.org/1999/xlink" x="0px" y="0px" width="24px"
	 height="24px" viewBox="0 0 24 24" enable-background="new 0 0 24 24" xml:space="preserve">
<g id="Bounding_Boxes">
	<g id="ui_x5F_spec_x5F_header_copy_3">
	</g>
	<rect fill="none" width="24" height="24"/>
</g>
<g id="Duotone" fill="currentColor">
	<g id="ui_x5F_spec_x5F_header_copy_5">
	</g>
	<g>
		<path opacity="0.3" d="M4,18h16V6H4V18z M14,10h2v2h-2V10z M14,14h2v2h-2V14z M10,10h2v2h-2V10z M6,10h2v2H6V10z"/>
		<rect x="14" y="10" width="2" height="2"/>
		<rect x="14" y="14" width="2" height="2"/>
		<rect x="6" y="10" width="2" height="2"/>
		<rect x="10" y="10" width="2" height="2"/>
		<path d="M20,4H4C2.9,4,2,4.9,2,6v12c0,1.1,0.9,2,2,2h16c1.1,0,2-0.9,2-2V6C22,4.9,21.1,4,20,4z M20,18H4V6h16V18z"/>
	</g>
</g>
</svg>

<svg xmlns="http://www.w3.org/2000/svg" width="24" height="24"><path fill="none" d="M0 0h24v24H0z"/><g fill="currentColor"><path opacity=".3" d="M4 18h16V6H4v12zm10-8h2v2h-2v-2zm0 4h2v2h-2v-2zm-4-4h2v2h-2v-2zm-4 0h2v2H6v-2z"/><path d="M14 10h2v2h-2zM14 14h2v2h-2zM6 10h2v2H6zM10 10h2v2h-2z"/><path d="M20 4H4c-1.1 0-2 .9-2 2v12c0 1.1.9 2 2 2h16c1.1 0 2-.9 2-2V6c0-1.1-.9-2-2-2zm0 14H4V6h16v12z"/></g></svg>
